X: 40929
T: Trip To Birmingham, The
R: reel
M: 4/4
K: Gmajor
E|DGGF G2Bd|~e3d edBA|~G3B dGBG|ABAG EFGE|
DGGF G2Bd|~e3d efga|bg~g2 ageg|dBAB G3:|
e|dggf g2 ga|bg~g2 edBA|~G3B dGBG|ABAG EFG2|
dggf g2 ga|bg~g2 edBA|~G3B dGBG|AGFA G3e|
dggf g2 ga|bg~g2 edBA|~G3B dGBG|ABAG EFG2|
dg~g2 ag~g2|bg~g2 edBA|~G3B dGBG|AGFA G3||

